X: 23594
T: Lilies In The Field, The
R: reel
M: 4/4
K: Amajor
EAAG E3F|G3A BAAG|EAAG E2F/G/A|GEDB, B,A,A,2|
EAAG ~E3F|GEF/G/A BAAG|EAAG E2F/G/A|GEDB, B,A,A,2||
A2cA EAcA|GABc d2cB|A2cA EAcA|Beed BAA2|
A2cA EAcA|F/G/A Bc d2cd|ecdB A2F/G/A|Beed BAAG|

